X: 1
T:Bernard's Mazurka
R:Mazurka
O:France
M:3/4
K:G
B dB |\
A2 GBdB | e2 eBdB | A2 GBdB | c3A Bc |\
f2 fgfe | c2 cABc |
|1 e2 eded | B2G :|2 fe dc BA | G4 \
|: Bc |\
d2 dBdg | d2dBdg |
fe ed eg | ag fe ef |\
e2d2Bc | d2dBdg | d2 dBdg | fe eg af |1 g4 :|2 g3 |]
